X:1
T:62
L:1/8
Q:1/4=172
M:3/4
K:Dmin
V:1 treble nm="Piano" snm="Pno."
V:1
"^Vivace   活泼" AG F2 A2 | GF E2 G2 | FE D2 F2 | EF G2 z2 | AG F2 A2 | GF E2 G2 | FE D2 F2 | %7
 ED C2 z2 | FE D2 F2 | EF G2 z2 | FE D2 F2 | EF G2 z2 | AG F2 A2 | GF E2 G2 | FE D2 F2 | %15
 ED C2 z2 |] %16

